!!!COM: Bach, Johann Sebastian
!!!CDT: 1685/3//-1750/7/28/
!!!OTL@@DE: Ich dank' dir, Gott, fuer all' Wohltat
!!!AGN: 4-Part Chorale
!!!SCT: BH 223
!!!SCT: BWV 346
**harm	**root	**kern	**kern	**kern	**kern
!	!	!bass	!tenor	!alto	!soprno
*	*Iorgan	*Iorgan	*Iorgan	*Iorgan	*Iorgan
*M4/4	*M4/4	*M4/4	*M4/4	*M4/4	*M4/4
*met(c)	*met(c)	*met(c)	*met(c)	*met(c)	*met(c)
*MM60	*MM60	*MM60	*MM60	*MM60	*MM60
*k[b-e-a-d-]	*k[b-e-a-d-]	*k[b-e-a-d-]	*k[b-e-a-d-]	*k[b-e-a-d-]	*k[b-e-a-d-]
*A-:	*A-:	*A-:	*A-:	*A-:	*A-:
I;	4CC;	4AA-	8C	4A-	4e-
.	.	.	8D-	.	.
=1	=1	=1	=1	=1	=1
V7d/IV	4CC	4GG-	4E-	4A-	4c
viib/V	4FF#	4FF	4F	4A-	4d
V;	4GG;	4EE-;	4BB-;	4G;	4e-;
Vb	4GG	4GG	4E-	[4B-	4e-
=2	=2	=2	=2	=2	=2
I	4CC	4AA-	[4E-	8B-]	4c
.	.	.	.	4A-	.
V	4GG	4EE-	8.E-]	.	4B-
.	.	.	.	8G	.
.	.	.	16D-	.	.
I;	4CC;	4AAA-;	4C;	4E-;	4A-;
I	4CC	4AA-	4C	4E-	4A-
=3	=3	=3	=3	=3	=3
Vb	4GG	4GG	4E-	4B-	4e-
I	4CC	8AA-	4A-	[4c	4e-
.	.	8GG	.	.	.
viib/V	4FF#	4FF	4A-	8c]	4f
.	.	.	.	8d	.
V	4GG	4EE-	4B-	[4e-	4g
=4	=4	=4	=4	=4	=4
Ib	4CC	4C	4A-	8e-]	4a-
.	.	.	.	8d	.
Ic/V	4GG	4BB-	4B-	[4e-	4g
ii7b/V	4AA	4AA-	4c	4e-_	4f
V/V	4DD	4BB-	8.B-	8e-]	4f
.	.	.	.	8d	.
.	.	.	16A-	.	.
=5	=5	=5	=5	=5	=5
V;	2GG;	2EE-;	2G;	2B-;	2e-;
r	4r	4r	4r	4r	4r
Ib	4CC	4C	4A-	[4c	4e-
!!linebreak: 3
=6	=6	=6	=6	=6	=6
ii7b	4DD	4D-	4A-	8c]	4f
.	.	.	.	[8B-	.
V7b/vi	4EE	4EE	4G	8B-]	4g
.	.	.	.	8c	.
vi;	4AA;	4FF;	4F;	4c;	4a-;
I	4CC	4AA-	4C	[4A-	4e-
=7	=7	=7	=7	=7	=7
IV	4FF	4.D-	4D-	8A-]	4f
.	.	.	.	8G	.
Ib	8CC	.	4E-	8A-	4e-
viib/ii	8CC#	8C	.	8A	.
ii	4DD	8BB-	4F	8B-	4d-
.	.	8C	.	8A	.
iib	4DD	8D-	4F	[4B-	4d-
.	.	8BB-	.	.	.
=8	=8	=8	=8	=8	=8
VI;	2AA;	2F;	2F;	4B-]	2c;
.	.	.	.	4A;	.
r	4r	4r	4r	4r	4r
Ib	4CC	4C	4A-	[4e-	4a-
=9	=9	=9	=9	=9	=9
IV	4FF	8D-	4A-	8e-]	4f
.	.	8C	.	16d-	.
.	.	.	.	16c	.
viib	4BB	4BB-	4B-	4d-	4g
I;	4CC;	4AA-;	4E-;	4c;	4a-;
ii	4DD	[4BB-	8B-	4d-	4f
.	.	.	8A-	.	.
=10	=10	=10	=10	=10	=10
viioD7/ii	4CC#	8BB-]	4G-	[4c	4e-
.	.	8AA	.	.	.
ii	4DD	4BB-	4F	8c]	4d-
.	.	.	.	[8B-	.
VI;	4AA;	4FF;	4F;	8B-]	4c;
.	.	.	.	8A;	.
Vb	4GG	4GG	[4E-	4B-	4e-
!!linebreak: 3
=11	=11	=11	=11	=11	=11
V7b/ii	4AA	4AA	8E-]	4c	4c
.	.	.	[8F	.	.
V7b/ii	4AA	4BB	8F]	4G	4d
.	.	.	16E-	.	.
.	.	.	16D	.	.
iii;	4EE;	4C;	4C;	4G;	4e-;
Ib	8CC	8C	8c	8e-	4a-
V7b/V	8DD	8D	8B-	[8f	.
=12	=12	=12	=12	=12	=12
V	4GG	4E-	4B-	8f]	4g
.	.	.	.	4e-	.
V/V	4DD	4BB-	8.B-	.	4f
.	.	.	.	8d	.
.	.	.	16A-	.	.
V;	4GG;	4EE-;	4G;	4B-;	4e-;
Vb	4GG	4GG	4E-	4B-	4e-
=13	=13	=13	=13	=13	=13
I	4CC	8AA-	4E-	4A-	8c
.	.	8BB-	.	.	8d-
Ib	8CC	8C	8A-	4A-	4e-
V7/IV	8CC	8AA-	8G-	.	.
IV	4FF	4D-	8.F	8A-	4f
.	.	.	.	4d-	.
.	.	.	16G	.	.
V/IV	4CC	[4AA-	8.A-	.	4e-
.	.	.	.	8c	.
.	.	.	16G-	.	.
=14	=14	=14	=14	=14	=14
ii7d	8DD	8AA-]	8F	4.B-	4d-
V7b	8GG	8GG	8E-	.	.
I	4CC	4AA-	4E-	.	4c
.	.	.	.	[8A-	.
ii7b	8DD	4DD-	8F	8A-]	4B-
viic	8BB	.	8BB-	16G	.
.	.	.	.	16F	.
V	4GG	4EE-	8E-	4G	4B-
.	.	.	8D-	.	.
=15	=15	=15	=15	=15	=15
I;	1CC;	1AAA-;	1C;	1E-;	1A-;
==	==	==	==	==	==
*-	*-	*-	*-	*-	*-
!!chor2scor: -l 3 -s 0.6 -o %b.pmx
!!!YEC: Copyright 1994, David Huron
!!!YEC: Changes/Additions 2001 by Craig Stuart Sapp
!!!YEN: United States of America
!!!SMA: 371 Bach Chorales, edited by Ludwig Erk, C.F. Peters
!!!PDT: 1850, 1865
!!!ONB: Harmony and Root analysis done manually
